src/assets/img/tools/php.svg

<svg width="24" height="24" viewBox="0 0 24 24" fill="none" xmlns="http://www.w3.org/2000/svg">
    <path d="M7.01 10.207H6.066L5.551 12.855H6.389C6.945 12.855 7.359 12.75 7.631 12.541C7.903 12.331 8.086 11.982 8.181 11.492C8.273 11.022 8.231 10.69 8.057 10.497C7.882 10.304 7.534 10.207 7.01 10.207ZM12 5.68799C5.373 5.68799 0 8.51399 0 12C0 15.486 5.373 18.313 12 18.313C18.627 18.313 24 15.486 24 12C24 8.51399 18.627 5.68799 12 5.68799ZM8.74 13.139C8.479 13.389 8.165 13.577 7.823 13.69C7.487 13.798 7.058 13.854 6.538 13.854H5.357L5.03 15.535H3.652L4.882 9.20899H7.532C8.329 9.20899 8.91 9.41799 9.276 9.837C9.642 10.255 9.752 10.839 9.606 11.589C9.55008 11.8858 9.44711 12.1717 9.301 12.436C9.158 12.691 8.971 12.926 8.74 13.139ZM12.764 13.854L13.307 11.055C13.37 10.737 13.346 10.519 13.239 10.404C13.132 10.288 12.903 10.23 12.552 10.23H11.46L10.756 13.855H9.388L10.618 7.52799H11.985L11.658 9.20999H12.876C13.643 9.20999 14.171 9.344 14.462 9.611C14.753 9.878 14.84 10.311 14.725 10.91L14.153 13.854H12.764ZM20.361 11.589C20.306 11.886 20.203 12.1721 20.056 12.436C19.913 12.691 19.726 12.926 19.495 13.139C19.2339 13.3882 18.9207 13.5764 18.578 13.69C18.242 13.798 17.813 13.854 17.292 13.854H16.112L15.785 15.536H14.407L15.637 9.20999H18.286C19.083 9.20999 19.664 9.419 20.03 9.838C20.396 10.255 20.507 10.839 20.361 11.589ZM17.766 10.207H16.823L16.307 12.855H17.145C17.702 12.855 18.116 12.75 18.387 12.541C18.659 12.331 18.842 11.982 18.938 11.492C19.03 11.022 18.987 10.69 18.813 10.497C18.639 10.304 18.289 10.207 17.766 10.207Z"
          fill="#777BB4"/>
</svg>

<svg width="24" height="24" fill="none" xmlns="http://www.w3.org/2000/svg"><path d="M7.01 10.207h-.944l-.515 2.648h.838c.556 0 .97-.105 1.242-.314.272-.21.455-.559.55-1.049.092-.47.05-.802-.124-.995-.175-.193-.523-.29-1.047-.29zM12 5.688C5.373 5.688 0 8.514 0 12s5.373 6.313 12 6.313S24 15.486 24 12c0-3.486-5.373-6.312-12-6.312zm-3.26 7.451c-.261.25-.575.438-.917.551-.336.108-.765.164-1.285.164H5.357l-.327 1.681H3.652l1.23-6.326h2.65c.797 0 1.378.209 1.744.628.366.418.476 1.002.33 1.752a2.836 2.836 0 01-.305.847c-.143.255-.33.49-.561.703zm4.024.715l.543-2.799c.063-.318.039-.536-.068-.651-.107-.116-.336-.174-.687-.174H11.46l-.704 3.625H9.388l1.23-6.327h1.367l-.327 1.682h1.218c.767 0 1.295.134 1.586.401.291.267.378.7.263 1.299l-.572 2.944h-1.389zm7.597-2.265a2.781 2.781 0 01-.305.847c-.143.255-.33.49-.561.703a2.44 2.44 0 01-.917.551c-.336.108-.765.164-1.286.164h-1.18l-.327 1.682h-1.378l1.23-6.326h2.649c.797 0 1.378.209 1.744.628.366.417.477 1.001.331 1.751zm-2.595-1.382h-.943l-.516 2.648h.838c.557 0 .971-.105 1.242-.314.272-.21.455-.559.551-1.049.092-.47.049-.802-.125-.995-.174-.193-.524-.29-1.047-.29z" fill="#777BB4"/></svg>
